X:68
T:Cuz Teahan's Delight
B:Terry "Cuz" Teahan "Sliabh Luachra on Parade" 1980
Z:Patrick Cavanagh
M:2/4
L:1/8
R:Polka
K:A
B | ce/c/ BA | FA AB | ce/c/ BA | B/c/d e2 | 
ce/c/ BA | FA AB | c2 ec | BA [1]A :|[2] A2 | 
|: af ec | ec BA | af ec | B/c/d e2 | 
af ec | ec BA | c2 ec | BA A2 :|| 

